icon/lg/grommet.svg

<?xml version="1.0" encoding="UTF-8"?>
<svg viewBox="0 0 512 150" version="1.1" xmlns="http://www.w3.org/2000/svg" xmlns:xlink="http://www.w3.org/1999/xlink" height="1em" width="1em">
  <g fill="#7D4CDB">
    <path d="M206.978723,64.5213374 C208.770033,64.4568918 210.556722,64.7423392 212.238784,65.3617021 C214.930224,66.561194 217.127861,68.6489484 218.463708,71.2753799 L218.463708,65.3617021 L228.828207,65.3617021 L228.828207,103.893982 C229.079175,108.020711 228.150791,112.133667 226.151489,115.752462 C223.203365,120.194568 217.673641,122.504463 209.562316,122.682147 L208.534954,122.693252 C204.09602,122.846249 199.701197,121.769086 195.836109,119.58079 C192.606745,117.631134 190.563446,114.198392 190.389301,110.430152 L201.96766,110.430152 C202.142308,111.45394 202.644759,112.393306 203.399392,113.106869 C205.108285,114.234858 207.148966,114.750514 209.188571,114.569726 C212.287126,114.951426 215.31381,113.444211 216.876353,110.741398 C217.908759,108.194682 218.386245,105.457094 218.27696,102.711246 L218.27696,100.096778 C217.450277,101.602465 216.328124,102.925758 214.977751,103.987356 C212.591868,105.699139 209.692882,106.544676 206.760851,106.383951 C201.985172,106.556519 197.394988,104.525363 194.311003,100.874894 C191.02042,96.6258547 189.373707,91.3320585 189.673435,85.9662006 C189.48599,80.5328426 191.081958,75.1874416 194.217629,70.7462614 C197.135272,66.6353869 201.943002,64.2901527 206.978723,64.5213374 Z M467.585167,64.9259574 C470.558137,64.8419817 473.51551,65.3362376 476.29396,66.3774166 L477.327173,66.7934347 C480.188486,68.0988428 482.617931,70.1935636 484.330213,72.8316109 C485.99154,75.3605597 487.055874,78.2342627 487.442675,81.2352584 C487.753739,83.9103355 487.857797,86.605437 487.753921,89.296535 L458.185532,89.296535 C457.994548,92.7037452 459.600307,95.962493 462.41848,97.8869301 C464.180514,98.9502642 466.213013,99.4800111 468.269909,99.4120365 C470.388966,99.5367664 472.480693,98.8837933 474.152462,97.5756839 C475.068734,96.7988704 475.820129,95.8463975 476.36231,94.7744681 L487.193678,94.7744681 C486.751282,97.3310005 485.564565,99.6939148 483.790526,101.571466 L483.240851,102.119878 C479.232332,106.19108 473.662366,108.33512 467.958663,108.002432 C462.739687,108.070314 457.66604,106.283508 453.641337,102.960243 C449.491388,99.6195339 447.416413,94.1934752 447.416413,86.6820669 C447.038615,80.758065 449.070197,74.9326984 453.04997,70.5283891 C456.903168,66.7178286 462.171245,64.6873067 467.585167,64.9259574 Z M286.782249,64.3657143 C292.703917,63.9268365 298.481367,66.3302557 302.344559,70.8396353 C305.575049,74.9057623 307.37404,79.9133251 307.480132,85.0876278 L307.480122,86.0595745 C307.588932,91.5859157 305.74877,96.9741749 302.28231,101.279514 C298.369675,105.696628 292.599573,108.004669 286.72,107.504438 C280.845636,107.970026 275.090444,105.66795 271.15769,101.279514 C267.905321,97.2026387 266.103266,92.1696543 266.017943,86.9733522 L266.022128,85.9973252 C265.924517,80.4632486 267.763003,75.0688904 271.219939,70.7462614 C275.101775,66.2715247 280.876433,63.9039149 286.782249,64.3657143 Z M505.401581,55.0594529 L505.401581,66.3888146 L512,66.3888146 L512,73.9520973 L505.401581,73.9520973 L505.401581,95.4280851 C505.266334,96.5056159 505.484795,97.5979213 506.024073,98.5405471 C507.235667,99.1127687 508.585001,99.328662 509.91465,99.1630395 L512,99.1630395 L512,107.068693 L506.988936,107.224316 C501.946748,107.224316 498.52304,106.50845 496.686687,104.609848 C495.378555,103.036383 494.731461,101.017003 494.881459,98.9762918 L494.881459,74.0765957 L489.123404,73.9520973 L489.123404,66.3888146 L494.881459,66.3888146 L494.881459,55.0594529 L505.401581,55.0594529 Z M412.463465,67.1358055 C414.014251,68.4489501 415.212499,70.1286363 415.949422,72.0223708 C417.154987,69.8166592 418.95603,67.9940465 421.147234,66.76231 C423.421418,65.6441582 425.927543,65.0789471 428.46152,65.1127052 C430.237344,65.0952895 432.0006,65.4120421 433.659331,66.0464438 C435.53039,66.8358334 437.161655,68.10221 438.390274,69.7191489 C439.592111,71.2249281 440.385386,73.0151583 440.693495,74.9169605 C440.926096,76.5077928 441.052571,78.1118922 441.072258,79.7186301 L441.066991,106.539574 L430.173374,106.539574 L430.173374,80.6750152 C430.219769,79.3686725 429.964143,78.0692385 429.426383,76.8778116 C428.439809,74.9558849 426.378414,73.8326097 424.228571,74.0454711 C421.576953,73.7508034 419.04625,75.2312648 418.003647,77.6870517 C417.396162,79.156183 417.099437,80.7351814 417.132158,82.3246201 L417.132158,106.50845 L406.425289,106.50845 L406.425289,82.2934954 C406.524462,80.5182715 406.270566,78.7410059 405.678298,77.0645593 C404.74242,75.051103 402.624787,73.8607181 400.418237,74.1077204 C397.943943,73.743971 395.49219,74.8962949 394.193313,77.0334347 C393.519657,78.6031018 393.221262,80.3082186 393.321824,82.0133739 L393.321824,106.477325 L382.832827,106.477325 L382.832827,66.0153191 L393.166201,66.0153191 L393.166201,71.928997 C394.146062,70.2326592 395.409322,68.7167465 396.901155,67.4470517 C401.600589,64.3704826 407.644776,64.2495988 412.463465,67.1358055 Z M344.331672,66.76231 C345.884419,68.0736486 347.083051,69.7538743 347.817629,71.6488754 C349.04093,69.4644753 350.838383,67.6562597 353.015441,66.4199392 C355.282653,65.2821677 357.793625,64.7158634 360.329726,64.7703343 C361.942543,64.7808569 363.540211,65.0620282 365.056565,65.6003142 L365.80766,65.8908207 C369.480149,67.4628194 372.121099,70.7698492 372.841824,74.6990881 C373.046898,76.2464425 373.162551,77.8039016 373.188355,79.3637091 L373.184195,106.50845 L362.290578,106.50845 L362.290578,80.6438906 C362.339541,79.3272976 362.083907,78.0171732 361.543587,76.8155623 C360.550555,74.8999481 358.493813,73.7792086 356.345775,73.9832219 C353.707361,73.7490616 351.209726,75.2101776 350.120851,77.6248024 C349.602772,78.854636 349.31003,80.1652971 349.25428,81.4943536 L349.249362,106.477325 L338.542492,106.477325 L338.542492,82.2934954 C338.640866,80.5081205 338.38705,78.7208324 337.795502,77.0334347 C336.863414,75.031746 334.762303,73.8436178 332.566565,74.0765957 C330.092271,73.7128464 327.640518,74.8651703 326.341641,77.00231 C325.683314,78.5874221 325.385636,80.2990716 325.470152,82.0133739 L325.470152,106.446201 L314.701033,106.446201 L314.701033,65.9841945 L325.034407,65.9841945 L325.034407,71.5866261 C326.003994,69.8741193 327.268396,68.3463005 328.769362,67.0735562 C333.477838,64.0263733 339.505122,63.9058277 344.331672,66.76231 Z M260.793191,64.552462 L261.446809,64.5835866 L262.349422,64.5835866 L262.349422,75.4772036 C261.695805,75.4772036 261.104438,75.4772036 260.575319,75.3215805 L259.29921,75.3215805 C255.861265,74.8852682 252.486963,76.5054204 250.67769,79.461155 C249.736678,81.747269 249.311582,84.2128262 249.432705,86.6820669 L249.432705,106.134954 L238.570213,106.134954 L238.570213,65.4862006 L248.716839,65.4862006 L248.716839,72.582614 C249.854428,70.516258 251.3031,68.6371834 253.012036,67.011307 C255.222747,65.2770881 257.987384,64.403463 260.793191,64.552462 Z M286.673313,73.3611955 C283.901593,73.3611955 281.273127,74.5925837 279.499088,76.7221884 C277.66584,79.4777483 276.78077,82.7557873 276.977994,86.0595745 C276.778404,89.3592054 277.651906,92.6348355 279.467964,95.3969605 C281.242003,97.5265652 283.870469,98.7579534 286.642188,98.7579534 C289.413908,98.7579534 292.042374,97.5265652 293.816413,95.3969605 C295.616227,92.6275854 296.488275,89.3574043 296.306383,86.0595745 C296.517416,82.7631727 295.654723,79.4871262 293.847538,76.7221884 C292.073499,74.5925837 289.445033,73.3611955 286.673313,73.3611955 Z M201.780912,78.9009119 C200.978369,81.10371 200.587999,83.4353775 200.629301,85.7794529 C200.607083,87.9123076 201.009121,90.0282976 201.812036,92.0043769 C202.906267,95.0557738 205.760469,97.0950792 208.962546,97.1770998 L209.530942,97.1710638 C211.905386,97.2456642 214.196697,96.2928418 215.818116,94.5565957 L215.818116,94.5254711 C217.736006,91.9499526 218.643952,88.7610701 218.370334,85.5615805 C218.607429,82.4373224 217.76109,79.3267502 215.973739,76.7533131 C214.538929,74.900221 212.373187,73.7742439 210.051918,73.650695 L209.468693,73.6408511 C206.011594,73.454458 202.859562,75.6111113 201.780912,78.9009119 Z M461.422492,75.9440729 C459.842004,77.6660964 458.850091,79.8461236 458.590152,82.168997 L476.891429,82.168997 C476.863912,79.7343604 475.840336,77.4172552 474.059088,75.7573252 C472.49632,74.4338974 470.547031,73.6650353 468.514384,73.5583619 L467.834164,73.5474772 C465.455459,73.4120997 463.129195,74.2816257 461.422492,75.9440729 Z"/>
    <path d="M74.6990881,24.899696 C102.202533,24.899696 124.49848,47.1956433 124.49848,74.6990881 C124.49848,102.202533 102.202533,124.49848 74.6990881,124.49848 C47.1956433,124.49848 24.899696,102.202533 24.899696,74.6990881 C24.899696,47.1956433 47.1956433,24.899696 74.6990881,24.899696 M74.6990881,0 C33.4439209,0 0,33.4439209 0,74.6990881 C0,115.954255 33.4439209,149.398176 74.6990881,149.398176 C115.954255,149.398176 149.398176,115.954255 149.398176,74.6990881 C149.398176,54.8876582 141.528116,35.8876528 127.51932,21.8788564 C113.510523,7.87005991 94.5105181,0 74.6990881,0 Z"/>
  </g>
</svg>

<svg width="512" height="150" xmlns="http://www.w3.org/2000/svg"><g fill="#7D4CDB"><path d="M206.979 64.521a13.788 13.788 0 0 1 5.26.84 12.854 12.854 0 0 1 6.225 5.914v-5.913h10.364v38.532a21.787 21.787 0 0 1-2.677 11.858c-2.948 4.443-8.477 6.752-16.589 6.93l-1.027.011a24.09 24.09 0 0 1-12.699-3.112 11.298 11.298 0 0 1-5.447-9.15h11.579a4.793 4.793 0 0 0 1.431 2.676 9.057 9.057 0 0 0 5.79 1.463 7.781 7.781 0 0 0 7.687-3.829 19.328 19.328 0 0 0 1.401-8.03v-2.614a12.761 12.761 0 0 1-3.3 3.89 12.886 12.886 0 0 1-8.216 2.397 15.562 15.562 0 0 1-12.45-5.51 22.316 22.316 0 0 1-4.638-14.908 24.9 24.9 0 0 1 4.545-15.22 14.815 14.815 0 0 1 12.76-6.225Zm260.606.405a22.97 22.97 0 0 1 8.709 1.451l1.033.416a16.527 16.527 0 0 1 7.003 6.039 19.95 19.95 0 0 1 3.113 8.403 52.32 52.32 0 0 1 .31 8.062h-29.567a9.742 9.742 0 0 0 4.232 8.59 10.645 10.645 0 0 0 5.852 1.525 8.715 8.715 0 0 0 5.882-1.836 8.995 8.995 0 0 0 2.21-2.802h10.832a13.166 13.166 0 0 1-3.403 6.797l-.55.549a19.826 19.826 0 0 1-15.282 5.882 22.036 22.036 0 0 1-14.318-5.042c-4.15-3.34-6.225-8.767-6.225-16.278a22.005 22.005 0 0 1 5.634-16.154 19.453 19.453 0 0 1 14.535-5.602Zm-180.803-.56a18.675 18.675 0 0 1 15.563 6.474 23.686 23.686 0 0 1 5.135 14.248v.972a23.53 23.53 0 0 1-5.198 15.22 18.675 18.675 0 0 1-15.562 6.224 18.893 18.893 0 0 1-15.562-6.224 23.561 23.561 0 0 1-5.14-14.307l.004-.976a23.748 23.748 0 0 1 5.198-15.25 18.675 18.675 0 0 1 15.562-6.381Zm218.62-9.307v11.33H512v7.563h-6.598v21.476a5.011 5.011 0 0 0 .622 3.113 7.065 7.065 0 0 0 3.89.622H512v7.906l-5.011.155c-5.042 0-8.466-.716-10.302-2.614a7.906 7.906 0 0 1-1.806-5.634v-24.9l-5.758-.124V66.39h5.758v-11.33h10.52Zm-92.939 12.077a12.2 12.2 0 0 1 3.486 4.886 13.415 13.415 0 0 1 5.198-5.26 16.091 16.091 0 0 1 7.315-1.65c1.775-.017 3.539.3 5.197.934a11.61 11.61 0 0 1 4.731 3.673 11.205 11.205 0 0 1 2.303 5.198c.233 1.59.36 3.195.38 4.802l-.006 26.82h-10.894V80.676a8.497 8.497 0 0 0-.747-3.797 5.26 5.26 0 0 0-5.197-2.833 6.038 6.038 0 0 0-6.225 3.642 11.516 11.516 0 0 0-.872 4.638v24.183h-10.707V82.293c.1-1.775-.154-3.552-.747-5.228a5.167 5.167 0 0 0-5.26-2.957 6.225 6.225 0 0 0-6.225 2.925 10.987 10.987 0 0 0-.871 4.98v24.464h-10.49V66.015h10.334v5.914a17.15 17.15 0 0 1 3.735-4.482 14.66 14.66 0 0 1 15.562-.311Zm-68.131-.374a12.139 12.139 0 0 1 3.486 4.887 13.726 13.726 0 0 1 5.197-5.23 15.562 15.562 0 0 1 7.315-1.649c1.613.01 3.21.292 4.727.83l.75.29a11.92 11.92 0 0 1 7.035 8.81c.205 1.546.32 3.104.346 4.664l-.004 27.144h-10.893V80.644a8.56 8.56 0 0 0-.747-3.828 5.291 5.291 0 0 0-5.198-2.833 6.225 6.225 0 0 0-6.225 3.642c-.518 1.23-.811 2.54-.867 3.87l-.005 24.982h-10.707V82.293a13.633 13.633 0 0 0-.746-5.26 5.167 5.167 0 0 0-5.23-2.956 6.225 6.225 0 0 0-6.224 2.925 11.578 11.578 0 0 0-.872 5.011v24.433h-10.769V65.984h10.333v5.603a16.714 16.714 0 0 1 3.735-4.513 14.784 14.784 0 0 1 15.563-.312Zm-83.539-2.21.654.032h.902v10.893c-.653 0-1.245 0-1.774-.155H259.3a8.808 8.808 0 0 0-8.621 4.14 16.807 16.807 0 0 0-1.245 7.22v19.453H238.57V65.486h10.147v7.097a23.001 23.001 0 0 1 4.295-5.572 11.61 11.61 0 0 1 7.781-2.459Zm25.88 8.81a9.337 9.337 0 0 0-7.174 3.36 15.22 15.22 0 0 0-2.521 9.338c-.2 3.3.674 6.575 2.49 9.337a9.337 9.337 0 0 0 14.348 0c1.8-2.77 2.672-6.04 2.49-9.337a15.282 15.282 0 0 0-2.458-9.338 9.337 9.337 0 0 0-7.175-3.36ZM201.781 78.9a19.11 19.11 0 0 0-1.152 6.878 16.091 16.091 0 0 0 1.183 6.225 7.813 7.813 0 0 0 7.15 5.173l.569-.006a8.248 8.248 0 0 0 6.287-2.614v-.032a13.135 13.135 0 0 0 2.552-8.963 13.633 13.633 0 0 0-2.396-8.809 8.03 8.03 0 0 0-5.922-3.102l-.583-.01a7.657 7.657 0 0 0-7.688 5.26Zm259.641-2.957a11.018 11.018 0 0 0-2.832 6.225h18.301a8.902 8.902 0 0 0-2.832-6.412 9.337 9.337 0 0 0-5.545-2.199l-.68-.01a8.497 8.497 0 0 0-6.412 2.396ZM74.7 24.9c27.503 0 49.798 22.296 49.798 49.8 0 27.503-22.295 49.798-49.799 49.798-27.503 0-49.8-22.295-49.8-49.799 0-27.503 22.297-49.8 49.8-49.8M74.7 0C33.444 0 0 33.444 0 74.7c0 41.254 33.444 74.698 74.7 74.698 41.254 0 74.698-33.444 74.698-74.699A74.7 74.7 0 0 0 74.7 0Z"/></g></svg>
